material/.icons/material/harddisk-remove.svg

<svg xmlns="http://www.w3.org/2000/svg" viewBox="0 0 24 24"><path d="M12 9a1 1 0 101 1 1 1 0 00-1-1m0 0a1 1 0 101 1 1 1 0 00-1-1m6-7H6a2 2 0 00-2 2v9.09A5.47 5.47 0 015 13a5.71 5.71 0 012 .36 6 6 0 118.71 1.33l-1.92-2.42a1 1 0 00-1.37-.37l-.86.5a1 1 0 00-.37 1.37L12.1 16a6.12 6.12 0 01-2.1-.38 6 6 0 01.19 6.38H18a2 2 0 002-2V4a2 2 0 00-2-2m-3.42 17.58l-2.49-6.31.86-.5 4.22 5.31M12 11a1 1 0 10-1-1 1 1 0 001 1M7.12 22.54L5 20.41l-2.12 2.13-1.42-1.42L3.59 19l-2.13-2.12 1.42-1.42L5 17.59l2.12-2.13 1.42 1.42L6.41 19l2.13 2.12z"/></svg>

<?xml version="1.0" encoding="UTF-8"?><!DOCTYPE svg PUBLIC "-//W3C//DTD SVG 1.1//EN" "http://www.w3.org/Graphics/SVG/1.1/DTD/svg11.dtd"><svg xmlns="http://www.w3.org/2000/svg" xmlns:xlink="http://www.w3.org/1999/xlink" version="1.1" id="mdi-harddisk-remove" width="24" height="24" viewBox="0 0 24 24"><path d="M12 9A1 1 0 1 0 13 10A1 1 0 0 0 12 9M12 9A1 1 0 1 0 13 10A1 1 0 0 0 12 9M18 2H6A2 2 0 0 0 4 4V13.09A5.47 5.47 0 0 1 5 13A5.71 5.71 0 0 1 7 13.36A6 6 0 1 1 15.71 14.69L13.79 12.27A1 1 0 0 0 12.42 11.9L11.56 12.4A1 1 0 0 0 11.19 13.77L12.1 16A6.12 6.12 0 0 1 10 15.62A6 6 0 0 1 10.19 22H18A2 2 0 0 0 20 20V4A2 2 0 0 0 18 2M14.58 19.58L12.09 13.27L12.95 12.77L17.17 18.08M12 11A1 1 0 1 0 11 10A1 1 0 0 0 12 11M7.12 22.54L5 20.41L2.88 22.54L1.46 21.12L3.59 19L1.46 16.88L2.88 15.46L5 17.59L7.12 15.46L8.54 16.88L6.41 19L8.54 21.12Z" /></svg>
